X:1
T:Denbigh, 66.46.66.4
T:Denbigh, 66.46.66.4
T:Welsh melody
T:Public Domain Courtesy of the Cyber Hymnal™
C:Welsh melody
Z:Public Domain
Z:Courtesy of the Cyber Hymnal™
%%score ( 1 2 ) ( 3 4 )
L:1/8
Q:1/4=115
M:4/4
K:Bb
V:1 treble 
V:2 treble 
V:3 bass 
V:4 bass 
V:1
 [DG]4 | [DG]2 [EA]2 [DB]2 [CA]2 | [B,G]4 [DA]4 | [DB]2 [Fc]2 [Fd]2 [Gc]2 | [^Fd]4 [Dd]2 [Ec]2 | %5
 [DB]2 [CA]2 !fermata![B,G]4 | [Fd]4 [Fd]2 [Fc]2 | [FB]2 B2 [FA]4 | (B3 c) [Dd]2 [DG]2 | %9
 [DF]2 [^C=E]2 D4 | D4 [DG]2 [DA]2 | [DB]2 [Fc]2 [Fd]4 | [Ec]4 [DB]2 [CA]2 | [B,G]4 |] %14
V:2
 x4 | x8 | x8 | x8 | x8 | x8 | x8 | x2 (F=E) x4 | D4 x4 | x4 D4 | D4 x4 | x8 | x8 | x4 |] %14
V:3
 [G,,B,]4 | [B,,B,]2 [C,A,]2 [D,G,]2 [D,^F,]2 | [G,,G,]4 [D,^F,]4 | G,2 [F,A,]2 [B,,B,]2 [E,G,]2 | %4
 [D,A,]4 G,4 | [D,G,]2 [D,^F,]2 [G,,G,]4 | B,4 B,2 [A,E]2 | [B,D]2 [G,C]2 [F,C]4 | %8
 (B,3 A,) [G,B,]2 [G,,B,]2 | [A,,A,]2 [A,,G,]2 [D,F,]4 | A,4 [B,,B,]2 [D,^F,]2 | %11
 G,2 [F,A,]2 [B,,B,]4 | [C,G,]4 [D,G,]2 [D,^F,]2 | [G,,G,]4 |] %14
V:4
 x4 | x8 | x8 | G,2 x6 | x4 B,,2 C,2 | x8 | B,4 B,2 x2 | x8 | G,4 x4 | x8 | (D,3 C,) x4 | G,2 x6 | %12
 x8 | x4 |] %14

